X:112
T: MEIN MAEDCHEN WOHNT IM UNTERLAND
N: F0231
O: Europa, Mitteleuropa, Deutschland
R: Liebes - Lied
M: 3/4
L: 1/16
K: C
G2 | G2E2A6G2 | G3DD6
E2 | F2E2D4A4 | G8z2
G2 | G2E2c6c2 | B3Ad6
c2 | B6G2B3A | G8z2
G2 | G3ce2d2c2B2 | B3Ad2c2B2
A2 | G6D2F3E | C8z2

